X:54
T:First House in Connaught, The
R:reel
S:Seamus Ennis
E:7
I:speed 350
M:C|
K:G
DG~G2AG~G2|(3BAG .dG BGAF|DF~F2 AGFG|ABcA BGAF|\
DG~G2AG~G2|(3BAG dc AGFA|defg agfd|cAFA G4:|*
~g3 a gfdf|gaba gfd.g|(3.f.ga d.g .fade|fa ~a2 (3bag af|\
~g3a gfdf|gaba gf d2|defg agfd|cAFA G4:|**
<end>
<start>
